public/svg/html.svg

<?xml version="1.0" encoding="UTF-8"?>
<svg fill="none" viewBox="0 0 32 32" xmlns="http://www.w3.org/2000/svg">
<title>HTML (HTML5) icon</title>
<path d="m6 28-2-25h24l-2 25-10 3-10-3z" fill="#E44D26" style="--darkreader-inline-fill:#b03516" data-darkreader-inline-fill=""/>
<path d="M26 5H16V29.5L24 27L26 5Z" fill="#F16529" style="--darkreader-inline-fill:#b03d0c" data-darkreader-inline-fill=""/>
<path d="m9.5 17.5-1-9.5h15.5l-0.5 3h-12l0.5 3.5h11l-1 9.5-6 2-6-2-0.5-5h3l0.5 2.5 3 1 3-1 0.5-4h-10z" fill="#fff" style="--darkreader-inline-fill:#181a1b" data-darkreader-inline-fill=""/>
</svg>

<svg viewBox="0 0 32 32" fill="none" xmlns="http://www.w3.org/2000/svg"><g id="SVGRepo_bgCarrier" stroke-width="0"></g><g id="SVGRepo_tracerCarrier" stroke-linecap="round" stroke-linejoin="round"></g><g id="SVGRepo_iconCarrier"> <path d="M6 28L4 3H28L26 28L16 31L6 28Z" fill="#E44D26" data-darkreader-inline-fill="" style="--darkreader-inline-fill: #b03516;"></path> <path d="M26 5H16V29.5L24 27L26 5Z" fill="#F16529" data-darkreader-inline-fill="" style="--darkreader-inline-fill: #b03d0c;"></path> <path d="M9.5 17.5L8.5 8H24L23.5 11H11.5L12 14.5H23L22 24L16 26L10 24L9.5 19H12.5L13 21.5L16 22.5L19 21.5L19.5 17.5H9.5Z" fill="white" data-darkreader-inline-fill="" style="--darkreader-inline-fill: #181a1b;"></path> </g></svg>
